apps/scalable/masterpdfeditor.svg

<svg xmlns="http://www.w3.org/2000/svg" style="isolation:isolate" width="256" height="256"><defs><filter id="a" width="270.648" height="254.338" x="-7.32" y="2.95" filterUnits="userSpaceOnUse"><feGaussianBlur xmlns="http://www.w3.org/2000/svg" in="SourceGraphic" stdDeviation="4.294"/><feOffset xmlns="http://www.w3.org/2000/svg" dy="4" result="pf_100_offsetBlur"/><feFlood xmlns="http://www.w3.org/2000/svg" flood-opacity=".4"/><feComposite xmlns="http://www.w3.org/2000/svg" in2="pf_100_offsetBlur" operator="in" result="pf_100_dropShadow"/><feBlend xmlns="http://www.w3.org/2000/svg" in="SourceGraphic" in2="pf_100_dropShadow"/></filter></defs><g filter="url(#a)"><linearGradient id="b" x1=".233" x2=".933" y1="-.071" y2=".995" gradientTransform="matrix(244.648 0 0 228.338 5.676 11.947)" gradientUnits="userSpaceOnUse"><stop offset="0%" stop-color="#e8e8e8"/><stop offset="100%" stop-color="#f5f5f5"/></linearGradient><path fill="url(#b)" d="M165.685 11.947c74.055 0 84.639 10.557 84.639 84.544v59.251c0 73.986-10.584 84.543-84.639 84.543h-75.37c-74.055 0-84.639-10.557-84.639-84.543V96.491c0-73.987 10.584-84.544 84.639-84.544h75.37z"/></g><path fill="#BC1938" d="M165.685 11.947c60.867 0 78.171 6.766 82.648 50.386-17.333 0-210.666.334-241.314.002 4.54-43.296 22.598-50.388 83.296-50.388h75.37z"/><path fill="#5D5D5D" d="M70.794 91.483l-20.371 53.681h-5.004v4.129h14.452v-4.129h-4.627l4.827-12.397h23.952l4.821 12.397h-6.251v4.129h20.732v-4.129h-5.72L77.228 91.483h-6.434zm1.253 9.293l10.546 27.879H61.678l10.369-27.879z"/><path fill="#E3DFD5" fill-opacity=".996" d="M111.488 95.613v4.129h99.103v-4.129h-99.103zm0 16.517v4.13h99.103v-4.13h-99.103zm0 16.441v4.129h99.103v-4.129h-99.103zm0 16.517v4.129h99.103v-4.129h-99.103zm-66.069 16.518v4.129l165.172.076v-4.129l-165.172-.076zm0 16.517v4.129h165.172v-4.129H45.419zm0 16.517v4.129h123.879v-4.129H45.419z"/><g opacity=".4"><linearGradient id="c" x1=".517" x2=".517" y2="1"><stop offset="0%" stop-color="#fff"/><stop offset="12.5%" stop-opacity=".098" stop-color="#fff"/><stop offset="92.5%" stop-opacity=".098"/><stop offset="100%" stop-opacity=".498"/></linearGradient><path fill="none" stroke="url(#c)" stroke-linecap="round" stroke-linejoin="round" stroke-width="4.077" d="M165.685 11.947c74.055 0 84.639 10.557 84.639 84.544v59.251c0 73.986-10.584 84.543-84.639 84.543h-75.37c-74.055 0-84.639-10.557-84.639-84.543V96.491c0-73.987 10.584-84.544 84.639-84.544h75.37z" vector-effect="non-scaling-stroke"/></g><path fill="#BC1938" d="M139.849 160.667h70.635c5.436 0 9.849 4.413 9.849 9.849v29.635c0 5.436-4.413 9.849-9.849 9.849h-70.635c-5.436 0-9.849-4.413-9.849-9.849v-29.635c0-5.436 4.413-9.849 9.849-9.849z"/><path fill="#F1F1F1" fill-rule="evenodd" d="M142.393 199.833h-6.424V170.25h13.101q5.283 0 7.797 2.747 2.515 2.747 2.515 6.762 0 1.733-.592 3.36-.591 1.627-1.775 3.021-1.183 1.395-3.254 2.24-2.071.846-4.691.846h-6.677v10.607zm0-16.651h6.931q1.69 0 2.535-1.014.845-1.014.845-2.409 0-1.352-.803-2.388-.802-1.035-2.577-1.035h-6.931v6.846zm20.75 16.651V170.25h10.904q3.719 0 6.593 1.247 2.873 1.246 4.543 3.381 1.669 2.134 2.493 4.712.824 2.578.824 5.452 0 2.113-.465 4.12-.464 2.008-1.563 3.973-1.099 1.965-2.747 3.423-1.649 1.458-4.184 2.367-2.536.908-5.663.908h-10.735zm6.424-6.128h4.987q3.634 0 5.452-2.599 1.817-2.599 1.817-6.064 0-3.466-1.754-6.086t-5.05-2.62h-5.452v17.369zm30.598 6.128h-6.424V170.25h20.624v6.086h-14.2v5.198h8.917v6.086h-8.917v12.213z"/></svg>

<svg xmlns="http://www.w3.org/2000/svg" style="isolation:isolate" width="256" height="256" viewBox="0 0 256 256">
 <defs>
  <filter id="8sF6wOJwrWyTSTQ56HFhbRX7medOoFPs" width="270.648" height="254.338" x="-7.32" y="2.95" filterUnits="userSpaceOnUse">
   <feGaussianBlur xmlns="http://www.w3.org/2000/svg" in="SourceGraphic" stdDeviation="4.294"/>
   <feOffset xmlns="http://www.w3.org/2000/svg" dx="0" dy="4" result="pf_100_offsetBlur"/>
   <feFlood xmlns="http://www.w3.org/2000/svg" flood-opacity=".4"/>
   <feComposite xmlns="http://www.w3.org/2000/svg" in2="pf_100_offsetBlur" operator="in" result="pf_100_dropShadow"/>
   <feBlend xmlns="http://www.w3.org/2000/svg" in="SourceGraphic" in2="pf_100_dropShadow" mode="normal"/>
  </filter>
 </defs>
 <g filter="url(#8sF6wOJwrWyTSTQ56HFhbRX7medOoFPs)">
  <linearGradient id="_lgradient_176" x1=".233" x2=".933" y1="-.071" y2=".995" gradientTransform="matrix(244.648,0,0,228.338,5.676,11.947)" gradientUnits="userSpaceOnUse">
   <stop offset="0%" style="stop-color:rgb(232,232,232)"/>
   <stop offset="100%" style="stop-color:rgb(245,245,245)"/>
  </linearGradient>
  <path fill="url(#_lgradient_176)" d="M 165.685 11.947 C 239.74 11.947 250.324 22.504 250.324 96.491 L 250.324 155.742 C 250.324 229.728 239.74 240.285 165.685 240.285 L 90.315 240.285 C 16.26 240.285 5.676 229.728 5.676 155.742 L 5.676 96.491 C 5.676 22.504 16.26 11.947 90.315 11.947 L 165.685 11.947 Z"/>
 </g>
 <g>
  <path fill="#BC1938" d="M 165.685 11.947 C 226.552 11.947 243.856 18.713 248.333 62.333 C 231 62.333 37.667 62.667 7.019 62.335 C 11.559 19.039 29.617 11.947 90.315 11.947 L 165.685 11.947 Z"/>
  <path fill="#5D5D5D" d="M 70.794 91.483 L 50.423 145.164 L 45.419 145.164 L 45.419 149.293 L 59.871 149.293 L 59.871 145.164 L 55.244 145.164 L 60.071 132.767 L 84.023 132.767 L 88.844 145.164 L 82.593 145.164 L 82.593 149.293 L 103.325 149.293 L 103.325 145.164 L 97.605 145.164 L 77.228 91.483 L 70.794 91.483 Z M 72.047 100.776 L 82.593 128.655 L 61.678 128.655 L 72.047 100.776 Z"/>
  <path fill="#E3DFD5" fill-opacity=".996" d="M 111.488 95.613 L 111.488 99.742 L 210.591 99.742 L 210.591 95.613 L 111.488 95.613 Z M 111.488 112.13 L 111.488 116.26 L 210.591 116.26 L 210.591 112.13 L 111.488 112.13 Z M 111.488 128.571 L 111.488 132.7 L 210.591 132.7 L 210.591 128.571 L 111.488 128.571 Z M 111.488 145.088 L 111.488 149.217 L 210.591 149.217 L 210.591 145.088 L 111.488 145.088 Z M 45.419 161.606 L 45.419 165.735 L 210.591 165.811 L 210.591 161.682 L 45.419 161.606 Z M 45.419 178.123 L 45.419 182.252 L 210.591 182.252 L 210.591 178.123 L 45.419 178.123 Z M 45.419 194.64 L 45.419 198.769 L 169.298 198.769 L 169.298 194.64 L 45.419 194.64 Z"/>
 </g>
 <g opacity=".4">
  <linearGradient id="_lgradient_177" x1=".517" x2=".517" y1="0" y2="1">
   <stop offset="0%" style="stop-color:rgb(255,255,255)"/>
   <stop offset="12.5%" stop-opacity=".098" style="stop-color:rgb(255,255,255)"/>
   <stop offset="92.5%" stop-opacity=".098" style="stop-color:rgb(0,0,0)"/>
   <stop offset="100%" stop-opacity=".498" style="stop-color:rgb(0,0,0)"/>
  </linearGradient>
  <path fill="none" stroke="url(#_lgradient_177)" stroke-linecap="round" stroke-linejoin="round" stroke-width="4.077" d="M 165.685 11.947 C 239.74 11.947 250.324 22.504 250.324 96.491 L 250.324 155.742 C 250.324 229.728 239.74 240.285 165.685 240.285 L 90.315 240.285 C 16.26 240.285 5.676 229.728 5.676 155.742 L 5.676 96.491 C 5.676 22.504 16.26 11.947 90.315 11.947 L 165.685 11.947 Z" vector-effect="non-scaling-stroke"/>
 </g>
 <path fill="#BC1938" d="M 139.849 160.667 L 210.484 160.667 C 215.92 160.667 220.333 165.08 220.333 170.516 L 220.333 200.151 C 220.333 205.587 215.92 210 210.484 210 L 139.849 210 C 134.413 210 130 205.587 130 200.151 L 130 170.516 C 130 165.08 134.413 160.667 139.849 160.667 Z"/>
 <path fill="#F1F1F1" fill-rule="evenodd" d="M 142.393 199.833 L 135.969 199.833 L 135.969 170.25 L 149.07 170.25 L 149.07 170.25 Q 154.353 170.25 156.867 172.997 L 156.867 172.997 L 156.867 172.997 Q 159.382 175.744 159.382 179.759 L 159.382 179.759 L 159.382 179.759 Q 159.382 181.492 158.79 183.119 L 158.79 183.119 L 158.79 183.119 Q 158.199 184.746 157.015 186.14 L 157.015 186.14 L 157.015 186.14 Q 155.832 187.535 153.761 188.38 L 153.761 188.38 L 153.761 188.38 Q 151.69 189.226 149.07 189.226 L 149.07 189.226 L 142.393 189.226 L 142.393 199.833 Z M 142.393 183.182 L 149.324 183.182 L 149.324 183.182 Q 151.014 183.182 151.859 182.168 L 151.859 182.168 L 151.859 182.168 Q 152.704 181.154 152.704 179.759 L 152.704 179.759 L 152.704 179.759 Q 152.704 178.407 151.901 177.371 L 151.901 177.371 L 151.901 177.371 Q 151.099 176.336 149.324 176.336 L 149.324 176.336 L 142.393 176.336 L 142.393 183.182 Z M 163.143 199.833 L 163.143 170.25 L 174.047 170.25 L 174.047 170.25 Q 177.766 170.25 180.64 171.497 L 180.64 171.497 L 180.64 171.497 Q 183.513 172.743 185.183 174.878 L 185.183 174.878 L 185.183 174.878 Q 186.852 177.012 187.676 179.59 L 187.676 179.59 L 187.676 179.59 Q 188.5 182.168 188.5 185.042 L 188.5 185.042 L 188.5 185.042 Q 188.5 187.155 188.035 189.162 L 188.035 189.162 L 188.035 189.162 Q 187.571 191.17 186.472 193.135 L 186.472 193.135 L 186.472 193.135 Q 185.373 195.1 183.725 196.558 L 183.725 196.558 L 183.725 196.558 Q 182.076 198.016 179.541 198.925 L 179.541 198.925 L 179.541 198.925 Q 177.005 199.833 173.878 199.833 L 173.878 199.833 L 163.143 199.833 Z M 169.567 193.705 L 174.554 193.705 L 174.554 193.705 Q 178.188 193.705 180.006 191.106 L 180.006 191.106 L 180.006 191.106 Q 181.823 188.507 181.823 185.042 L 181.823 185.042 L 181.823 185.042 Q 181.823 181.576 180.069 178.956 L 180.069 178.956 L 180.069 178.956 Q 178.315 176.336 175.019 176.336 L 175.019 176.336 L 169.567 176.336 L 169.567 193.705 Z M 200.165 199.833 L 193.741 199.833 L 193.741 170.25 L 214.365 170.25 L 214.365 176.336 L 200.165 176.336 L 200.165 181.534 L 209.082 181.534 L 209.082 187.62 L 200.165 187.62 L 200.165 199.833 Z"/>
</svg>
